source/assets/img/inout-instagram.svg

<?xml version="1.0" encoding="UTF-8"?>
<svg width="36px" height="36px" viewBox="0 0 36 36" version="1.1" xmlns="http://www.w3.org/2000/svg" xmlns:xlink="http://www.w3.org/1999/xlink">
    <!-- Generator: Sketch 42 (36781) - http://www.bohemiancoding.com/sketch -->
    <title>Insta_Normal@2x</title>
    <desc>Created with Sketch.</desc>
    <defs></defs>
    <g id="Page-1" stroke="none" stroke-width="1" fill="none" fill-rule="evenodd">
        <g id="1467498184_Instagram-Copy" transform="translate(10.000000, 10.000000)"></g>
        <g id="Group-12">
            <path d="M35.2857548,23.00323 L35.2857548,23.00323 C32.5225712,32.550105 22.5433232,38.0491284 12.9966923,35.2859448 L12.9966923,35.2859448 C3.44993945,32.5227612 -2.04908405,22.543269 0.71422165,12.9968823 L0.71422165,12.9968823 C3.47740525,3.45000726 13.4565312,-2.04901614 23.0032841,0.714167455 L23.0032841,0.714167455 C32.5499149,3.47735106 38.0490604,13.4568433 35.2857548,23.00323 Z" id="Shape-Copy-20" fill="#494976"></path>
            <path d="M23.0597333,13.8490831 C23.0598104,14.2226448 22.8342956,14.5594624 22.4883626,14.7024538 C22.1424296,14.8454452 21.7442172,14.7664452 21.4794402,14.5022972 C21.2146633,14.2381492 21.1354752,13.8408826 21.278807,13.4957713 C21.4221389,13.15066 21.7597584,12.9256809 22.1342095,12.9257577 C22.6453186,12.9258626 23.0596282,13.339188 23.0597333,13.8490831 Z M26,18.0189644 L25.9998095,18.0305938 L25.9472381,21.3790024 C25.9188264,23.8900993 23.8852662,25.9188292 21.3681905,25.9471734 L18,25.999962 L17.9883429,25.999734 L14.6319619,25.9474394 C12.1148478,25.9190976 10.0812207,23.8904022 10.0526857,21.3792684 L10,18.0189644 L10.0002286,18.0073349 L10.0526476,14.6588124 C10.0812631,12.1477124 12.1148436,10.1190635 14.6319238,10.0906413 L18,10.0379667 L18.0116571,10.0381948 L21.3680381,10.0904893 C23.8850799,10.1189139 25.9185935,12.1475972 25.9470857,14.6586603 L26,18.0189644 Z M24.510019,18.0189644 L24.4576762,14.6821473 C24.4383447,12.9750618 23.0559116,11.5958956 21.3447619,11.5765891 L18,11.5244846 L14.6552381,11.5765891 C12.9440925,11.595935 11.5616605,12.9750664 11.5422476,14.6821473 L11.490019,18.0189644 L11.5422476,21.3557815 C11.5616001,23.0628877 12.9440671,24.4420541 14.6552381,24.4613397 L18,24.5134442 L21.3447619,24.4613397 C23.0559371,24.4420935 24.4384051,23.0628923 24.4576762,21.3557815 L24.510019,18.0189644 Z M22.1081905,18.0189644 C22.1081905,19.6766443 21.1072486,21.1710977 19.5721041,21.8054608 C18.0369596,22.4398239 16.2699343,22.0891693 15.0949922,20.9170071 C13.92005,19.7448449 13.5685768,17.9820135 14.2044645,16.4505214 C14.8403523,14.9190292 16.3383732,13.9204787 18,13.9204941 C20.267844,13.9230493 22.1056502,15.7565071 22.1081905,18.0189644 L22.1081905,18.0189644 Z M20.6184,18.0189644 C20.6184,16.9624171 19.9804339,16.0099051 19.001986,15.6055855 C18.023538,15.2012659 16.8972982,15.4247632 16.1484331,16.1718604 C15.3995681,16.9189575 15.175555,18.0425255 15.5808515,19.0186435 C15.9861479,19.9947614 16.9409372,20.6311983 18,20.6311829 C19.4454148,20.6295074 20.6167245,19.460946 20.6183619,18.0189644 L20.6184,18.0189644 Z" id="Shape" fill="#FFFFFF" fill-rule="nonzero"></path>
        </g>
    </g>
</svg>

<svg width="36" height="36" viewBox="0 0 36 36" xmlns="http://www.w3.org/2000/svg"><title>Insta_Normal@2x</title><desc>Created with Sketch.</desc><g fill="none"><g><path d="M35.286 23.003c-2.763 9.547-12.742 15.046-22.289 12.283s-15.046-12.743-12.282-22.289c2.763-9.547 12.742-15.046 22.289-12.283s15.046 12.743 12.282 22.289z" fill="#494976"/><path d="M23.06 13.849c0 .374-.225.71-.571.853-.346.143-.744.064-1.009-.2-.265-.264-.344-.661-.201-1.007.143-.345.481-.57.855-.57.511 0 .925.413.926.923zm2.94 4.17v.012l-.053 3.348c-.028 2.511-2.062 4.54-4.579 4.568l-3.368.053h-.012l-3.356-.052c-2.517-.028-4.551-2.057-4.579-4.568l-.053-3.36v-.012l.052-3.349c.029-2.511 2.062-4.54 4.579-4.568l3.368-.053h.012l3.356.052c2.517.028 4.551 2.057 4.579 4.568l.053 3.36zm-1.49 0l-.052-3.337c-.019-1.707-1.402-3.086-3.113-3.106l-3.345-.052-3.345.052c-1.711.019-3.094 1.398-3.113 3.106l-.052 3.337.052 3.337c.019 1.707 1.402 3.086 3.113 3.106l3.345.052 3.345-.052c1.711-.019 3.094-1.398 3.113-3.106l.052-3.337zm-2.402 0c0 1.658-1.001 3.152-2.536 3.786-1.535.634-3.302.284-4.477-.888-1.175-1.172-1.526-2.935-.891-4.466.636-1.531 2.134-2.53 3.796-2.53 2.268.003 4.106 1.836 4.108 4.098zm-1.49 0c0-1.057-.638-2.009-1.616-2.413-.978-.404-2.105-.181-2.854.566-.749.747-.973 1.871-.568 2.847s1.36 1.613 2.419 1.613c1.445-.002 2.617-1.17 2.618-2.612z" fill="#fff" fill-rule="nonzero"/></g></g></svg>
